X: 1
T: Valse de mon p\`ere
R: waltz
Z: 2008 John Chambers <jc:trillian.mit.edu>
S: Printed copy from Debby Knight
M: 3/4
L: 1/8
K: D
|:"D"F3 F GB | "/C#"A3 F GB | "/B"A2 f2 zf | "/A"f4 G2 \
| "D"F3 FGB | "B7/D#"A3 F GB | "Em"A2 e3 f | "A"e4 (3cec |
| "G"B3 A Bc | "E/#G"d2 c2 (3BdB | "D/A"A3 F Ad | "Bm"f2 e2 d2 \
| "Em"c3 A ce | "A7"g2 f2 (3efe | "D"d3 cde |1 "D"d4 (3GBG :|2 "D"d2 A2 d2 |]
|:"D"f2 zf fa | "/F#"f2 e2 d2 | "G"B3 A Bd | "Em"B2 c2 d2 \
| "A"e2 zd eg | "A"e2 c2 A2 | "A"a3 g ab | "A"a2 A2 d2 |
| "D"f2 zf fa | "/F#"f2 e2 d2 | "G"B3 A Bd | "Em"B2 c2 d2 \
| "A"e2 zd eg | "A"e2 c2 A2 | "G"d2 dc "A7"de |1 "D"d2 A2 d2 :|2 "D"d6 |]
